packages/icons/svg/Navigation_Display_DisplayProductX9_32px.svg

<svg xmlns="http://www.w3.org/2000/svg" viewBox="0 0 32 32"><path d="M9.5 21.5H4a1 1 0 00-1 1V28a1 1 0 001 1h5.5a1 1 0 001-1v-5.5a1 1 0 00-1-1zm-1 5.5H5v-3.5h3.5zM18.75 21.5h-5.5a1 1 0 00-1 1V28a1 1 0 001 1h5.5a1 1 0 001-1v-5.5a1 1 0 00-1-1zm-1 5.5h-3.5v-3.5h3.5zM28 21.5h-5.5a1 1 0 00-1 1V28a1 1 0 001 1H28a1 1 0 001-1v-5.5a1 1 0 00-1-1zM27 27h-3.5v-3.5H27zM9.5 12.25H4a1 1 0 00-1 1v5.5a1 1 0 001 1h5.5a1 1 0 001-1v-5.5a1 1 0 00-1-1zm-1 5.5H5v-3.5h3.5zM18.75 12.25h-5.5a1 1 0 00-1 1v5.5a1 1 0 001 1h5.5a1 1 0 001-1v-5.5a1 1 0 00-1-1zm-1 5.5h-3.5v-3.5h3.5zM28 12.25h-5.5a1 1 0 00-1 1v5.5a1 1 0 001 1H28a1 1 0 001-1v-5.5a1 1 0 00-1-1zm-1 5.5h-3.5v-3.5H27zM9.5 3H4a1 1 0 00-1 1v5.5a1 1 0 001 1h5.5a1 1 0 001-1V4a1 1 0 00-1-1zm-1 5.5H5V5h3.5zM18.75 3h-5.5a1 1 0 00-1 1v5.5a1 1 0 001 1h5.5a1 1 0 001-1V4a1 1 0 00-1-1zm-1 5.5h-3.5V5h3.5zM28 3h-5.5a1 1 0 00-1 1v5.5a1 1 0 001 1H28a1 1 0 001-1V4a1 1 0 00-1-1zm-1 5.5h-3.5V5H27z"/></svg>

<svg xmlns="http://www.w3.org/2000/svg" viewBox="0 0 32 32"><defs></defs><g id="Icon"><path  d="M9.5,21.5H4a1,1,0,0,0-1,1V28a1,1,0,0,0,1,1H9.5a1,1,0,0,0,1-1V22.5A1,1,0,0,0,9.5,21.5ZM8.5,27H5V23.5H8.5Z"/><path  d="M18.75,21.5h-5.5a1,1,0,0,0-1,1V28a1,1,0,0,0,1,1h5.5a1,1,0,0,0,1-1V22.5A1,1,0,0,0,18.75,21.5Zm-1,5.5h-3.5V23.5h3.5Z"/><path  d="M28,21.5H22.5a1,1,0,0,0-1,1V28a1,1,0,0,0,1,1H28a1,1,0,0,0,1-1V22.5A1,1,0,0,0,28,21.5ZM27,27H23.5V23.5H27Z"/><path  d="M9.5,12.25H4a1,1,0,0,0-1,1v5.5a1,1,0,0,0,1,1H9.5a1,1,0,0,0,1-1v-5.5A1,1,0,0,0,9.5,12.25Zm-1,5.5H5v-3.5H8.5Z"/><path  d="M18.75,12.25h-5.5a1,1,0,0,0-1,1v5.5a1,1,0,0,0,1,1h5.5a1,1,0,0,0,1-1v-5.5A1,1,0,0,0,18.75,12.25Zm-1,5.5h-3.5v-3.5h3.5Z"/><path  d="M28,12.25H22.5a1,1,0,0,0-1,1v5.5a1,1,0,0,0,1,1H28a1,1,0,0,0,1-1v-5.5A1,1,0,0,0,28,12.25Zm-1,5.5H23.5v-3.5H27Z"/><path  d="M9.5,3H4A1,1,0,0,0,3,4V9.5a1,1,0,0,0,1,1H9.5a1,1,0,0,0,1-1V4A1,1,0,0,0,9.5,3Zm-1,5.5H5V5H8.5Z"/><path  d="M18.75,3h-5.5a1,1,0,0,0-1,1V9.5a1,1,0,0,0,1,1h5.5a1,1,0,0,0,1-1V4A1,1,0,0,0,18.75,3Zm-1,5.5h-3.5V5h3.5Z"/><path  d="M28,3H22.5a1,1,0,0,0-1,1V9.5a1,1,0,0,0,1,1H28a1,1,0,0,0,1-1V4A1,1,0,0,0,28,3ZM27,8.5H23.5V5H27Z"/></g></svg>
